X:1
T:La Sena
T:La Sena
T:Edward Kilenyi
C:Edward Kilenyi
%%score 1 { 2 | ( 3 4 ) }
L:1/8
Q:1/4=120
M:3/4
K:Eb
V:1 treble nm="Piano" snm="Pno."
V:2 treble nm="Piano" snm="Pno."
V:3 bass 
V:4 bass 
V:1
 z6 | z6 | z6 | z2 z2 e2 |: G2 G2 G2 | G4 A2 | B3 c BA | G4 e2 | G2 G2 G2 | G4 A2 | B3 c BA | %11
w: |||La|ni- na quea|mi me|quie _ _ _|ra, La|ni- na quea|mi me|quie _ _ _|
 G4 E2 | c2 c2 c2 | c4 e2 | B2 !fermata!e2 G2 | A2 A2 A2 | A2 B4 | G6- |1 G2 z2 e2 :|2 G2 z2 F2 || %20
w: ra Ha|de ser con|con- di-|cion, Yha de|ser con con-|di- cion|_|* La|* Que|
 !fermata!G2 (5:4:5A/F/G/A/A/ B2 | G2 G4 | x z x z F2 | !fermata!G2 (5:4:5A/F/G/A/A/ B2 | G2 G4 | %25
w: vol- vien do le ha cer la|se- na|Que|vol- vien do le ha cer la|se- na|
 z2 z2 E2 | c2 c2 c2 | c4 e2 | B6 | e2 z2 G2 | A2 A2 A2 | A2 B4 | G4 F2 | %33
w: Ha|de sa- lir|al bal-|con|_ Yha|de sa- lir|al bal-|con, Que|
 !fermata!G2 (5:4:5A/F/G/A/A/ B2 | G2 G4 | z2 z2 E2 | c2 c2 c2 | c2 !fermata!e4 | c2 cd cd | %39
w: vol- vien do le ha cer la|se na|Ha|de con- tes-|tar _|La la la la la|
 B2 Bc Bc | A2 AG AB | G4 E2 | c2 c2 c2 | c2 e4 | B2 B=A Bc | _A2 AG AB | !fermata!G4 !fermata!d2 | %47
w: la la la la la|la la la la la|la Ha|de con- tes-|tar _|La la la la la|la la la la la|la A-|
 !fermata!e6 |] %48
w: more|
V:2
 z2{/=A} B z{/=a} b z | z2{/=A} B z{/=a} b z | z2{/=A} B z{/=a} b z |{/=A,} B, z{/=A} B z z2 |: %4
 z2 [EG]B, G,2 | z2 [EG]B, G,2 | z2 [EG]B, G,2 | z2 [EG]B, G,2 | z2 [EG]B, G,2 | z2 [EG]B, G,2 | %10
 z2 [EG]B, G,2 | z2 [EG]B, G,2 | z2 [EA]C A,2 | z2 [Ac]E C2 | z2 !fermata![B,EB]2 z2 | %15
 z2 [FA]C A,2 | z2 [FA]D B,2 | z2 [EG]B, G,2 |1{/=A,} B, z{/=A} B z z2 :|2 z2 [EG]2 [B,F]2 || %20
 !fermata![EG]2 [FA]2 [DB]2 | [EG]6 | z6 | z6 | z6 |{/=A,} B, z{/=A} B z z2 | z2 [EA]C A,2 | %27
 z2 [Ac]E C2 | z2 [B,B]G E2 | z2 [GB]E B,2 | z2 [FA]C A,2 | z2 [FA]D B,2 | z2 [B,EG]2 [CF]2 | %33
 !fermata![EG]2 [FA]2 [DB]2 | [EG]6 |{/=A,} B, z{/=A} B z z2 | z2 [Ac]E C2 | z2 !fermata![Ac]E C2 | %38
 A6 | G6 | F6 | E4 z2 | z2 [Ac]E C2 | z2 [Ac]E C2 | G6 | F6 | !fermata!E4 !fermata![DFABd]2 | %47
 !fermata![EGBe]6 |] %48
V:3
{/=A,} B, z z4 |{/=A,} B, z z4 |{/=A,} B, z z4 | z6 |:{/D,} E,6 |{/=A,,} B,,6 |{/D,} E,6 | %7
{/=A,,} B,,6 |{/D,} E,6 |{/=A,,} B,,6 |{/D,} E,6 |{/=A,,} B,,6 |{/G,,} _A,,6 |{/G,,} _A,,6 | %14
{/!fermata!^F,,} !fermata!G,,4 z2 |{/=E,,} F,,6 |{/=A,,} B,,6 |{/D,} E,6 |1 z6 :|2{/D,} E, z z4 || %20
 E,,/4E,,/4E,,/4E,,/4E,,/ z/ z4 | E,,/E,,/E,,/E,,/ E,,4 | z2 z2 [B,,F,]2 | %23
 [E,G,]2 [F,A,]2 [D,B,]2 | [E,G,]6 | z6 |{/G,} _A,6 |{/G,} _A,6 |{/^F,} G,6 |{/D,} E,6 | %30
{/=E,} F,6 |{/=A,,} B,,6 |{/D,} E,4 B,,2 | E,,/4E,,/4E,,/4E,,/4E,, z4 | E,,/E,,/E,,/E,,/ E,,4 | %35
 z6 |{/G,} A,6 |{/G,,} A,,6 | z6 | z6 | z6 | z6 |{/G,} A,6 |{/G,,} A,,6 | z6 | z6 | %46
 z2 z2{/!fermata!B,,,} !fermata![B,,F,B,]2 | !fermata![E,,B,,E,]6 |] %48
V:4
 x6 | x6 | x6 | x6 |: x6 | x6 | x6 | x6 | x6 | x6 | x6 | x6 | x6 | x6 | x6 | x6 | x6 | x6 |1 x6 :|2 %19
 x6 || x6 | x6 | x6 | E,,/4E,,/4E,,/4E,,/4E,, z4 | E,,/E,,/E,,/E,,/ E,,4 | x6 | x6 | x6 | x6 | x6 | %30
 x6 | x6 | x6 | x6 | x6 | x6 | x6 | x6 | x6 | x6 | x6 | x6 | x6 | x6 | x6 | x6 | x6 | x6 |] %48

